X:18
T:Eklundapolska nr 2
C:Viksta-Lasse
R:Polska
O:Uppland
B:Melodier från Upplands bruk och Fyris bygder häfte 2, nr. 11
Z:Nils L
M:3/4
L:1/16
K:F
FA|: c2>(d2 c2=Bc) a2>>g2 | (g>a)ge (f>g)fc !tenuto!A2!tenuto!B2 |
     d2>(e2 d2^cd) b2>a2  | {ab}a2fa {ga}g4 d4 | {fg}f2ef g2d2 (fa)fd |
     (fa)fd e2c2 e2B2     | d2>e2    d2cd  e2B2| d2>c2 (cd)cA F2zA |
     c2>(d2 c2=Bc) a2>>g2 | (g>a)ge (f>g)fc !tenuto!A2!tenuto!B2 | d2>(e2 d2^cd) b2>a2  | 
    {ab}a2fa {ga}g4 d4 | f2ef (ga)gf d2f2| (cd)cA F2A2 c2f2| 
    (ef)ed c2b2 g2f2 |1 (ef)ge [f6A6] :|2 efge [f6A6] c2 |
|:A2Ac (fc)(fc) (ac)(ac) | A2Ac (fc)(fc) (ac)(ac)|B2Bd (fd)(fd) (bd)(bd)|
  B2Bd (fd)(fd) (bd)(bd) | A2Ac (fc)(fc) a2ga    |F3A  c2f2 a2ga | 
  b2ba (ga)gf (ef)ed | c2eg f2c2 A2F2| A2Ac (fc)(fc) (ac)(ac) | 
  A2Ac (fc)(fc) (ac)(ac)| B2Bd (fd)(fd) (bd)(bd)| B2Bd (fd)(fd) (bd)(bd) |  
  A2Ac (fc)(fc) a2ga    | F3A  c2f2 a2ga | 
  b2ba (ga)gf (ef)ed |1 (ce)ge [f6A6] c2 :|2 (ce)ge [f4A4] [F4A,4] |]
(:musicend:)

(:music:)
